!!!id: EG048
!!!page: 126-127
!!!COM: Anonymous
!!!LYR: Anonymous
!!!PTL@@FR: Chansons Populaires du Canada
!!!OTL@@FR: La fille du roi d'Espagne
!!!PUB: G. E. Desbarats
!!!YEM:
!!!PDT: 1865
!!!SMA:
!!!OMD:
!!!AGN-Laforte:
!!!AGN-type:
!!!AGN-rime:
**kern
*clefG2
*k[f#,c#,g#]
*A:
*M3/8
*
*
8e
=1
4a
8g#
=2
4f#
8g#
=3
4.a
=4
4e
8r
=5
4f#
8e
!!LO:PB:g=original
=6
8f#
8g#
8a
=7
(4g#
8f#)
=8
4e
8e
=9
4a
8b/
=10
4cc#
8dd
=11
(4cc#
8b)
!!LO:PB:g=original
=12
4b/
8a
=13
4f#
8a
=14
[4.b
=15
4b]
8e
=16
4a
8b/
=17
4cc#
8dd
!!LO:PB:g=original
=18
(4cc#
8b)
=19
4b/
8a
=20
4f#
8g#
=21
[4.a
=22
8a]
8r
==||
8r
==||
*
*
==|
*-
